flaticon/social-media/google-drive.svg

<svg xmlns="http://www.w3.org/2000/svg" width="32" height="32" viewBox="0 0 24 24">
    <path d="M 23.9375 15.453125 L 15.8125 1.636719 C 15.730469 1.515625 15.609375 1.433594 15.445312 1.433594 L 8.132812 1.433594 C 7.96875 1.433594 7.847656 1.515625 7.765625 1.597656 L 0.046875 14.601562 C 0.0078125 14.722656 -0.0351562 14.886719 0.046875 15.007812 L 3.644531 22.207031 C 3.652344 22.261719 3.671875 22.3125 3.703125 22.363281 C 3.734375 22.410156 3.78125 22.453125 3.832031 22.484375 C 3.898438 22.539062 3.976562 22.566406 4.070312 22.566406 L 19.917969 22.566406 C 20.078125 22.566406 20.199219 22.484375 20.28125 22.363281 L 23.9375 15.859375 C 24.019531 15.738281 24.019531 15.574219 23.9375 15.453125 Z M 22.882812 15.25 L 16.097656 15.25 L 11.925781 7.796875 C 11.917969 7.746094 11.902344 7.695312 11.871094 7.652344 L 8.839844 2.25 L 15.203125 2.25 Z M 15.148438 15.25 L 8.121094 15.25 L 11.503906 8.730469 Z M 8.121094 2.675781 L 9.769531 5.628906 L 11.019531 7.894531 L 7.117188 15.402344 C 7.101562 15.417969 7.089844 15.433594 7.078125 15.453125 L 4.066406 21.257812 L 0.859375 14.84375 Z M 19.671875 21.75 L 4.75 21.75 L 7.699219 16.0625 L 22.882812 16.0625 Z M 19.671875 21.75"/>
</svg>

<svg xmlns="http://www.w3.org/2000/svg" width="32" height="32" viewBox="0 0 24 24">
    <path d="M23.938 15.453L15.813 1.637a.43.43 0 0 0-.368-.203H8.133a.515.515 0 0 0-.367.164L.046 14.602c-.038.12-.081.285 0 .406l3.599 7.199a.402.402 0 0 0 .058.156c.031.047.078.09.129.121a.36.36 0 0 0 .238.082h15.848c.16 0 .281-.082.363-.203l3.657-6.504a.366.366 0 0 0 0-.406zm-1.055-.203h-6.785l-4.172-7.453a.327.327 0 0 0-.055-.145L8.84 2.25h6.363zm-7.735 0H8.121l3.383-6.52zM8.121 2.676L9.77 5.629l1.25 2.266-3.903 7.507a.25.25 0 0 0-.039.051l-3.012 5.805L.86 14.844zm11.55 19.074H4.75l2.95-5.688h15.183zm0 0"/>
</svg>
